src/assets/crown.svg

<svg fill="none" height="36" viewBox="0 0 36 36" width="36" xmlns="http://www.w3.org/2000/svg"><path d="m29.4409 31.6062h-22.90641c-.74109 0-1.34754-.6065-1.34754-1.3476s.60645-1.3475 1.34754-1.3475h22.90641c.7411 0 1.3475.6064 1.3475 1.3475-.0003.7411-.6064 1.3476-1.3475 1.3476z" fill="#f9b212"/><path d="m29.263 31.1006h-22.88283c-.60223 0-1.09477-.4925-1.09477-1.0948 0-.6022.49254-1.0947 1.09477-1.0947h22.88283c.6022 0 1.0948.4925 1.0948 1.0947 0 .6023-.4926 1.0948-1.0948 1.0948z" fill="#fcc860" opacity=".46"/><path d="m24.2216 30.4741h-18.15468c-.43171 0-.78152-.3498-.78152-.7815s.34981-.7815.78152-.7815h18.15468c.4317 0 .7815.3498.7815.7815s-.3498.7815-.7815.7815z" fill="#fcd797" opacity=".46"/><path d="m30.6401 13.507-11.61 11.6097c-.868.868-2.2757.868-3.1441 0l-11.19722-11.1973 11.61002-11.61001c.868-.86801 2.2756-.86801 3.144 0z" fill="#fcb61a"/><path d="m30.5698 13.5773-11.6473-11.6476c-.6198-.61981-1.6242-.61981-2.244 0l-12.06003 12.06s1.20129 2.2707 3.59684-1.023c1.76624-2.4286 6.12279-6.48919 8.28949-8.45442.7355-.66727 1.8443-.70735 2.6258-.09457 2.5278 1.98105 7.7938 6.36079 8.922 9.29569 0-.0004 1.7409 2.7949 2.5172-.1361z" fill="#fcab08"/><path d="m31.2465 28.3872h-26.48003c-.66691 0-1.20727-.5407-1.20727-1.2072l-1.05468-14.8008c0-1.0199 1.18652-1.5803 1.97437-.9323l12.76071 9.6282c.4457.3667 1.0884.3667 1.5338 0l12.7607-9.6282c.7878-.648 1.9744-.0876 1.9744.9323l-1.0547 14.8008c0 .6665-.5404 1.2072-1.2073 1.2072z" fill="#fec00d"/><path d="m4.45745 11.5256 12.14195 9.2412c.4564.2068.9573.2964 1.4571.2607.4999-.0358.9829-.1957 1.4053-.4653l.2478-.1582 11.9359-8.8671s.7928.3136 0 .9211c-2.579 1.9761-11.3871 9.8641-13.8234 9.8641s-13.87933-9.8817-13.87933-9.8817-.55758-1.7458.51468-.9148z" fill="#ffd576" opacity=".51"/><path d="m2.66345 14.6081.89578 12.5719.22149.6964.98613.5108h26.48005l1.0371-.5892 1.2248-15.4192s-1.7841-.9843-2.2524 8.4477c0 0 .6736 4.7489-2.6947 4.5805l-20.37977-.1121-1.34754-.0211s-1.6098.6616-1.64707-3.2685c-.03762-3.9297-1.64215-8.2824-2.52387-7.3972z" fill="#fca110" opacity=".3"/><path d="m2.66345 14.6081.89578 12.5719.22149.6964.98613.5109h26.48005l1.0371-.5893 1.2248-15.4191s-1.1105-1.0407-1.5785 8.3914c0 0 0 6.5981-3.3686 6.4297l-20.37977-.1121-1.34754-.0211s-2.48906-1.1876-2.52633-5.1174c-.03762-3.9297-.76289-8.2265-1.64461-7.3413z" fill="#fca110" opacity=".3"/><g fill="#ff3803"><path d="m22.037 11.3921-3.6348 6.2026c-.2201.3754-.7629.3754-.9833 0l-3.6348-6.2026c-.0638-.1088-.0896-.2356-.0736-.3606s.0731-.2411.1622-.3303l3.6351-3.63513c.2226-.22253.5833-.22253.8058 0l3.6348 3.63483c.1832.1835.2197.4676.0886.6912z" opacity=".34"/><path d="m20.983 11.6466-2.7063 4.6184c-.1639.2795-.5682.2795-.732 0l-2.7063-4.6184c-.0977-.1667-.0703-.378.0661-.5144l2.7063-2.70631c.1656-.16559.4342-.16559.6001 0l2.7064 2.70631c.1364.1364.1634.3477.0657.5144z"/><path d="m29.0848 18.9921 4.2679-3.5691-.701 8.8232-3.638-3.6236c-.4605-.4584-.4275-1.2136.0711-1.6305z" opacity=".2"/><path d="m29.6722 19.1707 3.5431-3.0965-.5717 7.5202-3.0245-3.1479c-.3448-.3586-.3202-.9495.0531-1.2758z"/><path d="m7.17612 19.6436-4.38504-3.5694.72 8.8231 3.73746-3.6232c.47355-.4584.4398-1.2136-.07242-1.6305z" opacity=".2"/><path d="m6.32567 19.8221-3.39293-3.0965.54738 7.5203 2.89617-3.1479c.33012-.3586.30657-.9496-.05062-1.2759z"/></g></svg>

<svg width="36" height="36" viewBox="0 0 36 36" fill="none" xmlns="http://www.w3.org/2000/svg">
    <path d="M29.4409 31.6062H6.53449C5.7934 31.6062 5.18695 30.9997 5.18695 30.2586C5.18695 29.5175 5.7934 28.9111 6.53449 28.9111H29.4409C30.182 28.9111 30.7884 29.5175 30.7884 30.2586C30.7881 30.9997 30.182 31.6062 29.4409 31.6062Z" fill="#F9B212"/>
    <path opacity="0.46" d="M29.263 31.1006H6.38017C5.77794 31.1006 5.2854 30.6081 5.2854 30.0058C5.2854 29.4036 5.77794 28.9111 6.38017 28.9111H29.263C29.8652 28.9111 30.3578 29.4036 30.3578 30.0058C30.3578 30.6081 29.8652 31.1006 29.263 31.1006Z" fill="#FCC860"/>
    <path opacity="0.46" d="M24.2216 30.4741H6.06692C5.63521 30.4741 5.2854 30.1243 5.2854 29.6926C5.2854 29.2609 5.63521 28.9111 6.06692 28.9111H24.2216C24.6533 28.9111 25.0031 29.2609 25.0031 29.6926C25.0031 30.1243 24.6533 30.4741 24.2216 30.4741Z" fill="#FCD797"/>
    <path d="M30.6401 13.507L19.0301 25.1167C18.1621 25.9847 16.7544 25.9847 15.886 25.1167L4.68878 13.9194L16.2988 2.30939C17.1668 1.44138 18.5744 1.44138 19.4428 2.30939L30.6401 13.507Z" fill="#FCB61A"/>
    <path d="M30.5698 13.5773L18.9225 1.9297C18.3027 1.30989 17.2983 1.30989 16.6785 1.9297L4.61847 13.9897C4.61847 13.9897 5.81976 16.2604 8.21531 12.9667C9.98155 10.5381 14.3381 6.47751 16.5048 4.51228C17.2403 3.84501 18.3491 3.80493 19.1306 4.41771C21.6584 6.39876 26.9244 10.7785 28.0526 13.7134C28.0526 13.713 29.7935 16.5083 30.5698 13.5773Z" fill="#FCAB08"/>
    <path d="M31.2465 28.3872H4.76647C4.09956 28.3872 3.5592 27.8465 3.5592 27.18L2.50452 12.3792C2.50452 11.3593 3.69104 10.7989 4.47889 11.4469L17.2396 21.0751C17.6853 21.4418 18.328 21.4418 18.7734 21.0751L31.5341 11.4469C32.3219 10.7989 33.5085 11.3593 33.5085 12.3792L32.4538 27.18C32.4538 27.8465 31.9134 28.3872 31.2465 28.3872Z" fill="#FEC00D"/>
    <path opacity="0.51" d="M4.45745 11.5256L16.5994 20.7668C17.0558 20.9736 17.5567 21.0632 18.0565 21.0275C18.5564 20.9917 19.0394 20.8318 19.4618 20.5622L19.7096 20.404L31.6455 11.5369C31.6455 11.5369 32.4383 11.8505 31.6455 12.458C29.0665 14.4341 20.2584 22.3221 17.8221 22.3221C15.3858 22.3221 3.94277 12.4404 3.94277 12.4404C3.94277 12.4404 3.38519 10.6946 4.45745 11.5256Z" fill="#FFD576"/>
    <path opacity="0.3" d="M2.66345 14.6081L3.55923 27.18L3.78072 27.8764L4.76685 28.3872H31.2469L32.284 27.798L33.5088 12.3788C33.5088 12.3788 31.7247 11.3945 31.2564 20.8265C31.2564 20.8265 31.93 25.5754 28.5617 25.407L8.18193 25.2949L6.83439 25.2738C6.83439 25.2738 5.22459 25.9354 5.18732 22.0053C5.1497 18.0756 3.54517 13.7229 2.66345 14.6081Z" fill="#FCA110"/>
    <path opacity="0.3" d="M2.66345 14.6081L3.55923 27.18L3.78072 27.8764L4.76685 28.3873H31.2469L32.284 27.798L33.5088 12.3789C33.5088 12.3789 32.3983 11.3382 31.9303 20.7703C31.9303 20.7703 31.9303 27.3684 28.5617 27.2L8.18193 27.0879L6.83439 27.0668C6.83439 27.0668 4.34533 25.8792 4.30806 21.9494C4.27044 18.0197 3.54517 13.7229 2.66345 14.6081Z" fill="#FCA110"/>
    <path opacity="0.34" d="M22.037 11.3921L18.4022 17.5947C18.1821 17.9701 17.6393 17.9701 17.4189 17.5947L13.7841 11.3921C13.7203 11.2833 13.6945 11.1565 13.7105 11.0315C13.7265 10.9065 13.7836 10.7904 13.8727 10.7012L17.5078 7.06607C17.7304 6.84354 18.0911 6.84354 18.3136 7.06607L21.9484 10.7009C22.1316 10.8844 22.1681 11.1685 22.037 11.3921Z" fill="#FF3803"/>
    <path d="M20.983 11.6466L18.2767 16.265C18.1128 16.5445 17.7085 16.5445 17.5447 16.265L14.8384 11.6466C14.7407 11.4799 14.7681 11.2686 14.9045 11.1322L17.6108 8.42589C17.7764 8.2603 18.045 8.2603 18.2109 8.42589L20.9173 11.1322C21.0537 11.2686 21.0807 11.4799 20.983 11.6466Z" fill="#FF3803"/>
    <path opacity="0.2" d="M29.0848 18.9921L33.3527 15.423L32.6517 24.2462L29.0137 20.6226C28.5532 20.1642 28.5862 19.409 29.0848 18.9921Z" fill="#FF3803"/>
    <path d="M29.6722 19.1707L33.2153 16.0742L32.6436 23.5944L29.6191 20.4465C29.2743 20.0879 29.2989 19.497 29.6722 19.1707Z" fill="#FF3803"/>
    <path opacity="0.2" d="M7.17612 19.6436L2.79108 16.0742L3.51108 24.8973L7.24854 21.2741C7.72209 20.8157 7.68834 20.0605 7.17612 19.6436Z" fill="#FF3803"/>
    <path d="M6.32567 19.8221L2.93274 16.7256L3.48012 24.2459L6.37629 21.098C6.70641 20.7394 6.68286 20.1484 6.32567 19.8221Z" fill="#FF3803"/>
</svg>
